src/helpers/heroicons/outline/forward.svg

<svg width="24" height="24" viewBox="0 0 24 24" fill="none" xmlns="http://www.w3.org/2000/svg">
<path d="M3 8.68819C3 7.82439 3.93317 7.28285 4.68316 7.71141L11.7906 11.7728C12.5464 12.2047 12.5464 13.2945 11.7906 13.7264L4.68316 17.7878C3.93317 18.2164 3 17.6748 3 16.811V8.68819Z"  stroke-width="1.5" stroke-linecap="round" stroke-linejoin="round"/>
<path d="M12.75 8.68819C12.75 7.82439 13.6832 7.28285 14.4332 7.71141L21.5406 11.7728C22.2964 12.2047 22.2964 13.2945 21.5406 13.7264L14.4332 17.7878C13.6832 18.2164 12.75 17.6748 12.75 16.811V8.68819Z"  stroke-width="1.5" stroke-linecap="round" stroke-linejoin="round"/>
</svg>

<svg xmlns="http://www.w3.org/2000/svg" fill="none" viewBox="0 0 24 24" stroke-width="1.5" stroke="currentColor" aria-hidden="true" data-slot="icon">
  <path stroke-linecap="round" stroke-linejoin="round" d="M3 8.689c0-.864.933-1.406 1.683-.977l7.108 4.061a1.125 1.125 0 0 1 0 1.954l-7.108 4.061A1.125 1.125 0 0 1 3 16.811V8.69ZM12.75 8.689c0-.864.933-1.406 1.683-.977l7.108 4.061a1.125 1.125 0 0 1 0 1.954l-7.108 4.061a1.125 1.125 0 0 1-1.683-.977V8.69Z"/>
</svg>
